X:594
T:Miss W. MacDowal of Arndilly
R:Reel
B:The Athole Collection
M:C|
L:1/8
K:C
e/f/|gcac gcac|g<ce<c d2 de/f/|gcac gcec|BGAB ~c2c:|
G|~c2GE cGEc|GcEc d2de|~c2 GE cagf|e<cd<B ~c2 cG|
~c2 GE cGEc|GcEc d2de|cedf egfa|ecdB c2c||

